X: 20083
T: LOVE'S RITORNELLA
C:
%R: waltz, ritornella
B: Elias Howe "The Musician's Companion" 1843 p.8 #3
S: http://imslp.org/wiki/The_Musician's_Companion_(Howe,_Elias)
Z: 2015 John Chambers <jc:trillian.mit.edu>
M: 3/8
L: 1/8
K: D
% - - - - - - - - - - - - - - - - - - - - - - - - -
|:\
Ade | fa2 | aea | fad' |\
Ade | fa2 | aef | d2z :|\
fff | b>ff | ffe | dfa |\
eee | ae z/e/ | edB | A2"^D.C."z |]
% - - - - - - - - - - - - - - - - - - - - - - - - -

%%sep 1 1 500

